X: 40255
T: To Be Shaw
R: jig
M: 6/8
K: Aminor
A|:A2 A GEG|AcA BEB|B2 B AGE|B2 B AGE|
A2 A GEG|AcA GEG|BdB BAG|BAA A3:|
|:e2 a bag|ege dBd|e2 a bag|ac'b agd|
e2 a bag|ege dBd|ega bag|baa a3:|

